images/6605083.svg

<?xml version="1.0" encoding="UTF-8"?>
<svg xmlns="http://www.w3.org/2000/svg" xmlns:xlink="http://www.w3.org/1999/xlink" width="300pt" height="300pt" viewBox="0 0 300 300" version="1.1">
<defs>
<g>
<symbol overflow="visible" id="glyph0-0">
<path style="stroke:none;" d="M 0.59375 2.125 L 0.59375 -8.46875 L 6.59375 -8.46875 L 6.59375 2.125 Z M 1.265625 1.453125 L 5.9375 1.453125 L 5.9375 -7.78125 L 1.265625 -7.78125 Z M 1.265625 1.453125 "/>
</symbol>
<symbol overflow="visible" id="glyph0-1">
<path style="stroke:none;" d="M 1.171875 -8.75 L 2.765625 -8.75 L 6.65625 -1.4375 L 6.65625 -8.75 L 7.796875 -8.75 L 7.796875 0 L 6.203125 0 L 2.328125 -7.3125 L 2.328125 0 L 1.171875 0 Z M 1.171875 -8.75 "/>
</symbol>
<symbol overflow="visible" id="glyph0-2">
<path style="stroke:none;" d="M 1.171875 -8.75 L 6.203125 -8.75 L 6.203125 -7.75 L 2.359375 -7.75 L 2.359375 -5.171875 L 5.828125 -5.171875 L 5.828125 -4.171875 L 2.359375 -4.171875 L 2.359375 0 L 1.171875 0 Z M 1.171875 -8.75 "/>
</symbol>
</g>
</defs>
<g id="surface45921">
<rect x="0" y="0" width="300" height="300" style="fill:rgb(100%,100%,100%);fill-opacity:1;stroke:none;"/>
<path style="fill:none;stroke-width:1.2;stroke-linecap:butt;stroke-linejoin:miter;stroke:rgb(0%,0%,0%);stroke-opacity:1;stroke-miterlimit:10;" d="M 256.179688 186.433594 L 230.6875 171.546875 "/>
<path style="fill:none;stroke-width:1.2;stroke-linecap:butt;stroke-linejoin:miter;stroke:rgb(0%,0%,0%);stroke-opacity:1;stroke-miterlimit:10;" d="M 230.6875 171.546875 L 205.046875 186.183594 "/>
<path style="fill:none;stroke-width:1.2;stroke-linecap:butt;stroke-linejoin:miter;stroke:rgb(0%,0%,0%);stroke-opacity:1;stroke-miterlimit:10;" d="M 205.046875 186.183594 L 192.300781 178.742188 "/>
<path style="fill:none;stroke-width:1.2;stroke-linecap:butt;stroke-linejoin:miter;stroke:rgb(0%,0%,100%);stroke-opacity:1;stroke-miterlimit:10;" d="M 192.300781 178.742188 L 179.550781 171.300781 "/>
<path style="fill:none;stroke-width:1.2;stroke-linecap:butt;stroke-linejoin:miter;stroke:rgb(0%,0%,100%);stroke-opacity:1;stroke-miterlimit:10;" d="M 179.550781 171.300781 L 166.039062 177.238281 "/>
<path style="fill:none;stroke-width:1.2;stroke-linecap:butt;stroke-linejoin:miter;stroke:rgb(0%,0%,0%);stroke-opacity:1;stroke-miterlimit:10;" d="M 166.039062 177.238281 L 152.523438 183.175781 "/>
<path style="fill:none;stroke-width:1.2;stroke-linecap:butt;stroke-linejoin:miter;stroke:rgb(0%,0%,0%);stroke-opacity:1;stroke-miterlimit:10;" d="M 176.609375 141.925781 L 178.082031 156.613281 "/>
<path style="fill:none;stroke-width:1.2;stroke-linecap:butt;stroke-linejoin:miter;stroke:rgb(0%,0%,100%);stroke-opacity:1;stroke-miterlimit:10;" d="M 178.082031 156.613281 L 179.550781 171.300781 "/>
<path style=" stroke:none;fill-rule:nonzero;fill:rgb(100%,100%,100%);fill-opacity:1;" d="M 175.550781 164.300781 L 184.550781 164.300781 L 184.550781 178.300781 L 175.550781 178.300781 Z M 175.550781 164.300781 "/>
<g style="fill:rgb(0%,0%,100%);fill-opacity:1;">
  <use xlink:href="#glyph0-1" x="175.550781" y="175.439453"/>
</g>
<path style="fill:none;stroke-width:1.2;stroke-linecap:butt;stroke-linejoin:miter;stroke:rgb(0%,0%,0%);stroke-opacity:1;stroke-miterlimit:10;" d="M 152.523438 183.175781 L 132.875 161.140625 "/>
<path style="fill:none;stroke-width:1.2;stroke-linecap:butt;stroke-linejoin:miter;stroke:rgb(0%,0%,0%);stroke-opacity:1;stroke-miterlimit:10;" d="M 145.375 185.597656 L 129.65625 167.96875 "/>
<path style="fill:none;stroke-width:1.2;stroke-linecap:butt;stroke-linejoin:miter;stroke:rgb(0%,0%,100%);stroke-opacity:1;stroke-miterlimit:10;" d="M 143.265625 211.210938 L 147.894531 197.195312 "/>
<path style="fill:none;stroke-width:1.2;stroke-linecap:butt;stroke-linejoin:miter;stroke:rgb(0%,0%,0%);stroke-opacity:1;stroke-miterlimit:10;" d="M 147.894531 197.195312 L 152.523438 183.175781 "/>
<path style="fill:none;stroke-width:1.2;stroke-linecap:butt;stroke-linejoin:miter;stroke:rgb(0%,0%,0%);stroke-opacity:1;stroke-miterlimit:10;" d="M 132.875 161.140625 L 103.96875 167.140625 "/>
<path style="fill:none;stroke-width:1.2;stroke-linecap:butt;stroke-linejoin:miter;stroke:rgb(0%,0%,0%);stroke-opacity:1;stroke-miterlimit:10;" d="M 132.875 161.140625 L 140.320312 148.394531 "/>
<path style="fill:none;stroke-width:1.2;stroke-linecap:butt;stroke-linejoin:miter;stroke:rgb(0%,0%,100%);stroke-opacity:1;stroke-miterlimit:10;" d="M 140.320312 148.394531 L 147.761719 135.644531 "/>
<path style="fill:none;stroke-width:1.2;stroke-linecap:butt;stroke-linejoin:miter;stroke:rgb(0%,0%,0%);stroke-opacity:1;stroke-miterlimit:10;" d="M 103.96875 167.140625 L 99.339844 181.15625 "/>
<path style="fill:none;stroke-width:1.2;stroke-linecap:butt;stroke-linejoin:miter;stroke:rgb(0%,0%,100%);stroke-opacity:1;stroke-miterlimit:10;" d="M 99.339844 181.15625 L 94.710938 195.171875 "/>
<path style="fill:none;stroke-width:1.2;stroke-linecap:butt;stroke-linejoin:miter;stroke:rgb(0%,0%,0%);stroke-opacity:1;stroke-miterlimit:10;" d="M 109.640625 172.121094 L 105.9375 183.335938 "/>
<path style="fill:none;stroke-width:1.2;stroke-linecap:butt;stroke-linejoin:miter;stroke:rgb(0%,0%,100%);stroke-opacity:1;stroke-miterlimit:10;" d="M 105.9375 183.335938 L 102.230469 194.546875 "/>
<path style="fill:none;stroke-width:1.2;stroke-linecap:butt;stroke-linejoin:miter;stroke:rgb(0%,0%,0%);stroke-opacity:1;stroke-miterlimit:10;" d="M 103.96875 167.140625 L 94.144531 156.121094 "/>
<path style="fill:none;stroke-width:1.2;stroke-linecap:butt;stroke-linejoin:miter;stroke:rgb(0%,0%,100%);stroke-opacity:1;stroke-miterlimit:10;" d="M 94.144531 156.121094 L 84.320312 145.105469 "/>
<path style="fill:none;stroke-width:1.2;stroke-linecap:butt;stroke-linejoin:miter;stroke:rgb(0%,0%,100%);stroke-opacity:1;stroke-miterlimit:10;" d="M 94.710938 195.171875 L 104.535156 206.191406 "/>
<path style="fill:none;stroke-width:1.2;stroke-linecap:butt;stroke-linejoin:miter;stroke:rgb(0%,0%,0%);stroke-opacity:1;stroke-miterlimit:10;" d="M 104.535156 206.191406 L 114.359375 217.207031 "/>
<path style=" stroke:none;fill-rule:nonzero;fill:rgb(100%,100%,100%);fill-opacity:1;" d="M 90.710938 188.171875 L 99.710938 188.171875 L 99.710938 202.171875 L 90.710938 202.171875 Z M 90.710938 188.171875 "/>
<g style="fill:rgb(0%,0%,100%);fill-opacity:1;">
  <use xlink:href="#glyph0-1" x="90.710938" y="199.310547"/>
</g>
<path style="fill:none;stroke-width:1.2;stroke-linecap:butt;stroke-linejoin:miter;stroke:rgb(0%,0%,0%);stroke-opacity:1;stroke-miterlimit:10;" d="M 114.359375 217.207031 L 128.8125 214.207031 "/>
<path style="fill:none;stroke-width:1.2;stroke-linecap:butt;stroke-linejoin:miter;stroke:rgb(0%,0%,100%);stroke-opacity:1;stroke-miterlimit:10;" d="M 128.8125 214.207031 L 143.265625 211.210938 "/>
<path style="fill:none;stroke-width:1.2;stroke-linecap:butt;stroke-linejoin:miter;stroke:rgb(0%,0%,0%);stroke-opacity:1;stroke-miterlimit:10;" d="M 115.835938 209.804688 L 127.398438 207.40625 "/>
<path style="fill:none;stroke-width:1.2;stroke-linecap:butt;stroke-linejoin:miter;stroke:rgb(0%,0%,100%);stroke-opacity:1;stroke-miterlimit:10;" d="M 127.398438 207.40625 L 138.964844 205.007812 "/>
<path style="fill:none;stroke-width:1.2;stroke-linecap:butt;stroke-linejoin:miter;stroke:rgb(0%,0%,0%);stroke-opacity:1;stroke-miterlimit:10;" d="M 114.359375 217.207031 L 105.097656 245.242188 "/>
<path style=" stroke:none;fill-rule:nonzero;fill:rgb(100%,100%,100%);fill-opacity:1;" d="M 139.265625 204.210938 L 148.265625 204.210938 L 148.265625 218.210938 L 139.265625 218.210938 Z M 139.265625 204.210938 "/>
<g style="fill:rgb(0%,0%,100%);fill-opacity:1;">
  <use xlink:href="#glyph0-1" x="139.265625" y="215.349609"/>
</g>
<path style="fill:none;stroke-width:1.2;stroke-linecap:butt;stroke-linejoin:miter;stroke:rgb(0%,0%,100%);stroke-opacity:1;stroke-miterlimit:10;" d="M 84.320312 145.105469 L 69.632812 146.574219 "/>
<path style="fill:none;stroke-width:1.2;stroke-linecap:butt;stroke-linejoin:miter;stroke:rgb(0%,0%,0%);stroke-opacity:1;stroke-miterlimit:10;" d="M 69.632812 146.574219 L 54.945312 148.046875 "/>
<path style="fill:none;stroke-width:1.2;stroke-linecap:butt;stroke-linejoin:miter;stroke:rgb(0%,0%,0%);stroke-opacity:1;stroke-miterlimit:10;" d="M 90.601562 116.257812 L 87.460938 130.679688 "/>
<path style="fill:none;stroke-width:1.2;stroke-linecap:butt;stroke-linejoin:miter;stroke:rgb(0%,0%,100%);stroke-opacity:1;stroke-miterlimit:10;" d="M 87.460938 130.679688 L 84.320312 145.105469 "/>
<path style=" stroke:none;fill-rule:nonzero;fill:rgb(100%,100%,100%);fill-opacity:1;" d="M 80.320312 138.105469 L 89.320312 138.105469 L 89.320312 152.105469 L 80.320312 152.105469 Z M 80.320312 138.105469 "/>
<g style="fill:rgb(0%,0%,100%);fill-opacity:1;">
  <use xlink:href="#glyph0-1" x="80.320312" y="149.244141"/>
</g>
<path style="fill:none;stroke-width:1.2;stroke-linecap:butt;stroke-linejoin:miter;stroke:rgb(0%,0%,0%);stroke-opacity:1;stroke-miterlimit:10;" d="M 54.945312 148.046875 L 43.070312 121.019531 "/>
<path style="fill:none;stroke-width:1.2;stroke-linecap:butt;stroke-linejoin:miter;stroke:rgb(0%,0%,0%);stroke-opacity:1;stroke-miterlimit:10;" d="M 43.070312 121.019531 L 65.105469 101.371094 "/>
<path style="fill:none;stroke-width:1.2;stroke-linecap:butt;stroke-linejoin:miter;stroke:rgb(0%,0%,0%);stroke-opacity:1;stroke-miterlimit:10;" d="M 65.105469 101.371094 L 90.601562 116.257812 "/>
<path style="fill:none;stroke-width:1.2;stroke-linecap:butt;stroke-linejoin:miter;stroke:rgb(0%,0%,0%);stroke-opacity:1;stroke-miterlimit:10;" d="M 65.105469 101.371094 L 63.632812 86.683594 "/>
<path style="fill:none;stroke-width:1.2;stroke-linecap:butt;stroke-linejoin:miter;stroke:rgb(0%,0%,100%);stroke-opacity:1;stroke-miterlimit:10;" d="M 63.632812 86.683594 L 62.160156 71.996094 "/>
<path style="fill:none;stroke-width:1.2;stroke-linecap:butt;stroke-linejoin:miter;stroke:rgb(0%,0%,100%);stroke-opacity:1;stroke-miterlimit:10;" d="M 62.160156 71.996094 L 74.144531 63.378906 "/>
<path style="fill:none;stroke-width:1.2;stroke-linecap:butt;stroke-linejoin:miter;stroke:rgb(0%,0%,0%);stroke-opacity:1;stroke-miterlimit:10;" d="M 74.144531 63.378906 L 86.128906 54.757812 "/>
<path style="fill:none;stroke-width:1.2;stroke-linecap:butt;stroke-linejoin:miter;stroke:rgb(0%,0%,100%);stroke-opacity:1;stroke-miterlimit:10;" d="M 62.160156 71.996094 L 48.707031 65.925781 "/>
<path style="fill:none;stroke-width:1.2;stroke-linecap:butt;stroke-linejoin:miter;stroke:rgb(0%,0%,0%);stroke-opacity:1;stroke-miterlimit:10;" d="M 48.707031 65.925781 L 35.25 59.855469 "/>
<path style=" stroke:none;fill-rule:nonzero;fill:rgb(100%,100%,100%);fill-opacity:1;" d="M 58.160156 64.996094 L 67.160156 64.996094 L 67.160156 78.996094 L 58.160156 78.996094 Z M 58.160156 64.996094 "/>
<g style="fill:rgb(0%,0%,100%);fill-opacity:1;">
  <use xlink:href="#glyph0-1" x="58.160156" y="76.134766"/>
</g>
<path style="fill:none;stroke-width:1.2;stroke-linecap:butt;stroke-linejoin:miter;stroke:rgb(0%,0%,100%);stroke-opacity:1;stroke-miterlimit:10;" d="M 147.761719 135.644531 L 162.183594 138.785156 "/>
<path style="fill:none;stroke-width:1.2;stroke-linecap:butt;stroke-linejoin:miter;stroke:rgb(0%,0%,0%);stroke-opacity:1;stroke-miterlimit:10;" d="M 162.183594 138.785156 L 176.609375 141.925781 "/>
<path style="fill:none;stroke-width:1.2;stroke-linecap:butt;stroke-linejoin:miter;stroke:rgb(0%,0%,100%);stroke-opacity:1;stroke-miterlimit:10;" d="M 149.167969 143.0625 L 160.707031 145.574219 "/>
<path style="fill:none;stroke-width:1.2;stroke-linecap:butt;stroke-linejoin:miter;stroke:rgb(0%,0%,0%);stroke-opacity:1;stroke-miterlimit:10;" d="M 160.707031 145.574219 L 172.246094 148.085938 "/>
<path style=" stroke:none;fill-rule:nonzero;fill:rgb(100%,100%,100%);fill-opacity:1;" d="M 143.761719 128.644531 L 152.761719 128.644531 L 152.761719 142.644531 L 143.761719 142.644531 Z M 143.761719 128.644531 "/>
<g style="fill:rgb(0%,0%,100%);fill-opacity:1;">
  <use xlink:href="#glyph0-1" x="143.761719" y="139.783203"/>
</g>
<path style="fill:none;stroke-width:1.2;stroke-linecap:butt;stroke-linejoin:miter;stroke:rgb(0%,0%,0%);stroke-opacity:1;stroke-miterlimit:10;" d="M 176.609375 141.925781 L 198.644531 122.277344 "/>
<path style="fill:none;stroke-width:1.2;stroke-linecap:butt;stroke-linejoin:miter;stroke:rgb(0%,0%,0%);stroke-opacity:1;stroke-miterlimit:10;" d="M 198.644531 122.277344 L 226.675781 131.535156 "/>
<path style="fill:none;stroke-width:1.2;stroke-linecap:butt;stroke-linejoin:miter;stroke:rgb(0%,0%,0%);stroke-opacity:1;stroke-miterlimit:10;" d="M 203.625 116.605469 L 226.050781 124.015625 "/>
<path style="fill:none;stroke-width:1.2;stroke-linecap:butt;stroke-linejoin:miter;stroke:rgb(0%,0%,0%);stroke-opacity:1;stroke-miterlimit:10;" d="M 192.648438 93.371094 L 198.644531 122.277344 "/>
<path style="fill:none;stroke-width:1.2;stroke-linecap:butt;stroke-linejoin:miter;stroke:rgb(0%,0%,0%);stroke-opacity:1;stroke-miterlimit:10;" d="M 226.675781 131.535156 L 248.710938 111.886719 "/>
<path style="fill:none;stroke-width:1.2;stroke-linecap:butt;stroke-linejoin:miter;stroke:rgb(0%,0%,0%);stroke-opacity:1;stroke-miterlimit:10;" d="M 248.710938 111.886719 L 242.714844 82.980469 "/>
<path style="fill:none;stroke-width:1.2;stroke-linecap:butt;stroke-linejoin:miter;stroke:rgb(0%,0%,0%);stroke-opacity:1;stroke-miterlimit:10;" d="M 241.3125 110.410156 L 236.511719 87.285156 "/>
<path style="fill:none;stroke-width:1.2;stroke-linecap:butt;stroke-linejoin:miter;stroke:rgb(0%,0%,0%);stroke-opacity:1;stroke-miterlimit:10;" d="M 242.714844 82.980469 L 214.683594 73.722656 "/>
<path style="fill:none;stroke-width:1.2;stroke-linecap:butt;stroke-linejoin:miter;stroke:rgb(0%,0%,0%);stroke-opacity:1;stroke-miterlimit:10;" d="M 242.714844 82.980469 L 253.730469 73.15625 "/>
<path style="fill:none;stroke-width:1.2;stroke-linecap:butt;stroke-linejoin:miter;stroke:rgb(20%,80%,80%);stroke-opacity:1;stroke-miterlimit:10;" d="M 253.730469 73.15625 L 264.75 63.335938 "/>
<path style="fill:none;stroke-width:1.2;stroke-linecap:butt;stroke-linejoin:miter;stroke:rgb(0%,0%,0%);stroke-opacity:1;stroke-miterlimit:10;" d="M 214.683594 73.722656 L 192.648438 93.371094 "/>
<path style="fill:none;stroke-width:1.2;stroke-linecap:butt;stroke-linejoin:miter;stroke:rgb(0%,0%,0%);stroke-opacity:1;stroke-miterlimit:10;" d="M 217.101562 80.871094 L 199.472656 96.589844 "/>
<path style=" stroke:none;fill-rule:nonzero;fill:rgb(100%,100%,100%);fill-opacity:1;" d="M 261.75 56.335938 L 268.75 56.335938 L 268.75 70.335938 L 261.75 70.335938 Z M 261.75 56.335938 "/>
<g style="fill:rgb(20%,80%,80%);fill-opacity:1;">
  <use xlink:href="#glyph0-2" x="261.75" y="67.474609"/>
</g>
</g>
</svg>

<svg xmlns="http://www.w3.org/2000/svg" xmlns:xlink="http://www.w3.org/1999/xlink" width="300pt" height="300pt" viewBox="0 0 300 300"><defs><symbol overflow="visible"><path d="M.594 2.125V-8.47h6V2.126zm.672-.672h4.671V-7.78h-4.67zm0 0"/></symbol><symbol overflow="visible" id="a"><path d="M1.172-8.75h1.594l3.89 7.313V-8.75h1.14V0H6.204L2.328-7.313V0H1.172zm0 0"/></symbol><symbol overflow="visible" id="b"><path d="M1.172-8.75h5.03v1H2.36v2.578h3.468v1h-3.47V0H1.173zm0 0"/></symbol></defs><g><path fill="#fff" d="M0 0h300v300H0z"/><path d="M256.18 186.434l-25.493-14.887M230.688 171.547l-25.64 14.637M205.047 186.184l-12.746-7.442" stroke-width="1.2" stroke="#000" stroke-miterlimit="10" fill="none"/><path d="M192.3 178.742l-12.75-7.44M179.55 171.3l-13.51 5.938" stroke-width="1.2" stroke="#00f" stroke-miterlimit="10" fill="none"/><path d="M166.04 177.238l-13.517 5.938M176.61 141.926l1.472 14.687" stroke-width="1.2" stroke="#000" stroke-miterlimit="10" fill="none"/><path d="M178.082 156.613l1.47 14.688" stroke-width="1.2" stroke="#00f" stroke-miterlimit="10" fill="none"/><path d="M175.55 164.3h9v14h-9zm0 0" fill="#fff"/><use xlink:href="#a" x="175.551" y="175.439" fill="#00f"/><path d="M152.523 183.176l-19.648-22.035M145.375 185.598l-15.72-17.63" stroke-width="1.2" stroke="#000" stroke-miterlimit="10" fill="none"/><path d="M143.266 211.21l4.63-14.015" stroke-width="1.2" stroke="#00f" stroke-miterlimit="10" fill="none"/><path d="M147.895 197.195l4.628-14.02M132.875 161.14l-28.906 6M132.875 161.14l7.445-12.745" stroke-width="1.2" stroke="#000" stroke-miterlimit="10" fill="none"/><path d="M140.32 148.395l7.442-12.75" stroke-width="1.2" stroke="#00f" stroke-miterlimit="10" fill="none"/><path d="M103.97 167.14l-4.63 14.016" stroke-width="1.2" stroke="#000" stroke-miterlimit="10" fill="none"/><path d="M99.34 181.156l-4.63 14.016" stroke-width="1.2" stroke="#00f" stroke-miterlimit="10" fill="none"/><path d="M109.64 172.12l-3.703 11.216" stroke-width="1.2" stroke="#000" stroke-miterlimit="10" fill="none"/><path d="M105.938 183.336l-3.708 11.21" stroke-width="1.2" stroke="#00f" stroke-miterlimit="10" fill="none"/><path d="M103.97 167.14l-9.825-11.02" stroke-width="1.2" stroke="#000" stroke-miterlimit="10" fill="none"/><path d="M94.145 156.12l-9.825-11.015M94.71 195.172l9.825 11.02" stroke-width="1.2" stroke="#00f" stroke-miterlimit="10" fill="none"/><path d="M104.535 206.19l9.824 11.017" stroke-width="1.2" stroke="#000" stroke-miterlimit="10" fill="none"/><path d="M90.71 188.172h9v14h-9zm0 0" fill="#fff"/><use xlink:href="#a" x="90.711" y="199.311" fill="#00f"/><path d="M114.36 217.207l14.453-3" stroke-width="1.2" stroke="#000" stroke-miterlimit="10" fill="none"/><path d="M128.813 214.207l14.453-2.996" stroke-width="1.2" stroke="#00f" stroke-miterlimit="10" fill="none"/><path d="M115.836 209.805l11.562-2.4" stroke-width="1.2" stroke="#000" stroke-miterlimit="10" fill="none"/><path d="M127.398 207.406l11.567-2.398" stroke-width="1.2" stroke="#00f" stroke-miterlimit="10" fill="none"/><path d="M114.36 217.207l-9.262 28.035" stroke-width="1.2" stroke="#000" stroke-miterlimit="10" fill="none"/><path d="M139.266 204.21h9v14h-9zm0 0" fill="#fff"/><use xlink:href="#a" x="139.266" y="215.35" fill="#00f"/><path d="M84.32 145.105l-14.687 1.47" stroke-width="1.2" stroke="#00f" stroke-miterlimit="10" fill="none"/><path d="M69.633 146.574l-14.688 1.473M90.602 116.258l-3.14 14.422" stroke-width="1.2" stroke="#000" stroke-miterlimit="10" fill="none"/><path d="M87.46 130.68l-3.14 14.425" stroke-width="1.2" stroke="#00f" stroke-miterlimit="10" fill="none"/><path d="M80.32 138.105h9v14h-9zm0 0" fill="#fff"/><use xlink:href="#a" x="80.32" y="149.244" fill="#00f"/><path d="M54.945 148.047L43.07 121.02M43.07 121.02l22.035-19.65M65.105 101.37l25.497 14.888M65.105 101.37l-1.472-14.686" stroke-width="1.2" stroke="#000" stroke-miterlimit="10" fill="none"/><path d="M63.633 86.684L62.16 71.996M62.16 71.996l11.985-8.617" stroke-width="1.2" stroke="#00f" stroke-miterlimit="10" fill="none"/><path d="M74.145 63.38l11.984-8.622" stroke-width="1.2" stroke="#000" stroke-miterlimit="10" fill="none"/><path d="M62.16 71.996l-13.453-6.07" stroke-width="1.2" stroke="#00f" stroke-miterlimit="10" fill="none"/><path d="M48.707 65.926l-13.457-6.07" stroke-width="1.2" stroke="#000" stroke-miterlimit="10" fill="none"/><path d="M58.16 64.996h9v14h-9zm0 0" fill="#fff"/><use xlink:href="#a" x="58.16" y="76.135" fill="#00f"/><path d="M147.762 135.645l14.422 3.14" stroke-width="1.2" stroke="#00f" stroke-miterlimit="10" fill="none"/><path d="M162.184 138.785l14.425 3.14" stroke-width="1.2" stroke="#000" stroke-miterlimit="10" fill="none"/><path d="M149.168 143.063l11.54 2.51" stroke-width="1.2" stroke="#00f" stroke-miterlimit="10" fill="none"/><path d="M160.707 145.574l11.54 2.512" stroke-width="1.2" stroke="#000" stroke-miterlimit="10" fill="none"/><path d="M143.762 128.645h9v14h-9zm0 0" fill="#fff"/><use xlink:href="#a" x="143.762" y="139.783" fill="#00f"/><path d="M176.61 141.926l22.035-19.65M198.645 122.277l28.03 9.258M203.625 116.605l22.426 7.41M192.648 93.37l5.997 28.907M226.676 131.535l22.035-19.648M248.71 111.887l-5.995-28.907M241.313 110.41l-4.8-23.125M242.715 82.98l-28.03-9.257M242.715 82.98l11.015-9.824" stroke-width="1.2" stroke="#000" stroke-miterlimit="10" fill="none"/><path d="M253.73 73.156l11.02-9.82" stroke-width="1.2" stroke="#3cc" stroke-miterlimit="10" fill="none"/><path d="M214.684 73.723L192.648 93.37M217.102 80.87l-17.63 15.72" stroke-width="1.2" stroke="#000" stroke-miterlimit="10" fill="none"/><path d="M261.75 56.336h7v14h-7zm0 0" fill="#fff"/><use xlink:href="#b" x="261.75" y="67.475" fill="#3cc"/></g></svg>
